Hydrogen/scalable/apps/help-browser.svg

<?xml version="1.0" encoding="UTF-8" standalone="no"?>
<svg
   width="128"
   height="128"
   viewBox="0 0 128 128"
   fill="none"
   version="1.1"
   id="svg65"
   sodipodi:docname="help-browser.svg"
   inkscape:version="1.3.2 (091e20ef0f, 2023-11-25)"
   xmlns:inkscape="http://www.inkscape.org/namespaces/inkscape"
   xmlns:sodipodi="http://sodipodi.sourceforge.net/DTD/sodipodi-0.dtd"
   xmlns="http://www.w3.org/2000/svg"
   xmlns:svg="http://www.w3.org/2000/svg">
  <sodipodi:namedview
     id="namedview1"
     pagecolor="#ffffff"
     bordercolor="#000000"
     borderopacity="0.25"
     inkscape:showpageshadow="2"
     inkscape:pageopacity="0.0"
     inkscape:pagecheckerboard="0"
     inkscape:deskcolor="#d1d1d1"
     inkscape:zoom="6.09375"
     inkscape:cx="64"
     inkscape:cy="64"
     inkscape:window-width="2560"
     inkscape:window-height="979"
     inkscape:window-x="0"
     inkscape:window-y="0"
     inkscape:window-maximized="1"
     inkscape:current-layer="svg65" />
  <g
     filter="url(#filter0_ii_612_58)"
     id="g6"
     transform="matrix(1.2307692,0,0,1.1850785,-14.769231,-14.220943)"
     style="stroke-width:0.828014">
    <rect
       x="21.750002"
       y="22.125914"
       width="84.5"
       height="87.757896"
       rx="15.843752"
       fill="#268ef9"
       id="rect2"
       style="stroke-width:0.604875"
       ry="16.454605" />
  </g>
  <rect
     x="32"
     y="32"
     width="64"
     height="64"
     rx="8.727273"
     fill="#f0f0f2"
     fill-opacity="0.1"
     id="rect8"
     style="stroke-width:0.727272" />
  <rect
     x="32.849716"
     y="32.849716"
     width="62.300571"
     height="62.300571"
     rx="7.968678"
     stroke="#ffffff"
     stroke-opacity="0.5"
     stroke-width="1.69943"
     stroke-miterlimit="3.8637"
     stroke-linecap="round"
     stroke-linejoin="round"
     id="rect10" />
  <g
     filter="url(#filter1_i_612_58)"
     id="g14"
     transform="matrix(0.97278803,0,0,0.75716929,2.8028301,14.850882)">
    <path
       d="m 58.9091,73.9091 v -0.2727 c 0.0303,-2.894 0.3333,-5.197 0.9091,-6.9091 0.5757,-1.7121 1.3939,-3.0985 2.4545,-4.1591 1.0606,-1.0606 2.3334,-2.0379 3.8182,-2.9318 0.8939,-0.5455 1.697,-1.1894 2.4091,-1.9319 0.7121,-0.7575 1.2727,-1.6287 1.6818,-2.6136 0.4243,-0.9848 0.6364,-2.0757 0.6364,-3.2727 0,-1.4849 -0.3485,-2.7727 -1.0455,-3.8637 -0.6969,-1.0909 -1.6288,-1.9318 -2.7954,-2.5227 -1.1667,-0.5909 -2.4621,-0.8863 -3.8864,-0.8863 -1.2424,0 -2.4394,0.2575 -3.5909,0.7727 -1.1515,0.5151 -2.1136,1.3257 -2.8864,2.4318 -0.7727,1.1061 -1.2197,2.553 -1.3409,4.3409 h -5.7272 c 0.1212,-2.5757 0.7878,-4.7803 2,-6.6136 1.2272,-1.8334 2.8409,-3.2349 4.8409,-4.2046 2.0151,-0.9697 4.25,-1.4545 6.7045,-1.4545 2.6667,0 4.9849,0.5303 6.9546,1.5909 1.9848,1.0606 3.5151,2.5151 4.5909,4.3636 1.0909,1.8485 1.6363,3.9546 1.6363,6.3182 0,1.6667 -0.2575,3.1743 -0.7727,4.5227 -0.5,1.3485 -1.2273,2.5531 -2.1818,3.6137 -0.9394,1.0606 -2.0758,2 -3.4091,2.8182 -1.3333,0.8333 -2.4015,1.7121 -3.2046,2.6363 -0.803,0.9091 -1.3863,1.9924 -1.75,3.25 -0.3636,1.2576 -0.5606,2.8258 -0.5909,4.7046 v 0.2727 z m 2.9091,13.4545 c -1.1212,0 -2.0834,-0.4015 -2.8864,-1.2045 -0.803,-0.803 -1.2045,-1.7652 -1.2045,-2.8864 0,-1.1212 0.4015,-2.0833 1.2045,-2.8863 0.803,-0.8031 1.7652,-1.2046 2.8864,-1.2046 1.1212,0 2.0833,0.4015 2.8863,1.2046 0.8031,0.803 1.2046,1.7651 1.2046,2.8863 0,0.7425 -0.1894,1.4243 -0.5682,2.0455 -0.3636,0.6212 -0.8561,1.1212 -1.4773,1.5 -0.606,0.3636 -1.2878,0.5454 -2.0454,0.5454 z"
       fill="#ffffff"
       id="path12" />
  </g>
  <defs
     id="defs63">
    <filter
       id="filter0_ii_612_58"
       x="12"
       y="12"
       width="104"
       height="108"
       filterUnits="userSpaceOnUse"
       color-interpolation-filters="sRGB">
      <feFlood
         flood-opacity="0"
         result="BackgroundImageFix"
         id="feFlood16" />
      <feBlend
         mode="normal"
         in="SourceGraphic"
         in2="BackgroundImageFix"
         result="shape"
         id="feBlend18" />
      <feColorMatrix
         in="SourceAlpha"
         type="matrix"
         values="0 0 0 0 0 0 0 0 0 0 0 0 0 0 0 0 0 0 127 0"
         result="hardAlpha"
         id="feColorMatrix20" />
      <feOffset
         dy="-4"
         id="feOffset22" />
      <feComposite
         in2="hardAlpha"
         operator="arithmetic"
         k2="-1"
         k3="1"
         id="feComposite24" />
      <feColorMatrix
         type="matrix"
         values="0 0 0 0 0 0 0 0 0 0 0 0 0 0 0 0 0 0 0.1 0"
         id="feColorMatrix26" />
      <feBlend
         mode="normal"
         in2="shape"
         result="effect1_innerShadow_612_58"
         id="feBlend28" />
      <feColorMatrix
         in="SourceAlpha"
         type="matrix"
         values="0 0 0 0 0 0 0 0 0 0 0 0 0 0 0 0 0 0 127 0"
         result="hardAlpha"
         id="feColorMatrix30" />
      <feOffset
         dy="4"
         id="feOffset32" />
      <feGaussianBlur
         stdDeviation="4"
         id="feGaussianBlur34" />
      <feComposite
         in2="hardAlpha"
         operator="arithmetic"
         k2="-1"
         k3="1"
         id="feComposite36" />
      <feColorMatrix
         type="matrix"
         values="0 0 0 0 0.941176 0 0 0 0 0.941176 0 0 0 0 0.94902 0 0 0 0.2 0"
         id="feColorMatrix38" />
      <feBlend
         mode="normal"
         in2="effect1_innerShadow_612_58"
         result="effect2_innerShadow_612_58"
         id="feBlend40" />
    </filter>
    <filter
       id="filter1_i_612_58"
       x="49.5454"
       y="39.8182"
       width="26.7273"
       height="47.5455"
       filterUnits="userSpaceOnUse"
       color-interpolation-filters="sRGB">
      <feFlood
         flood-opacity="0"
         result="BackgroundImageFix"
         id="feFlood43" />
      <feBlend
         mode="normal"
         in="SourceGraphic"
         in2="BackgroundImageFix"
         result="shape"
         id="feBlend45" />
      <feColorMatrix
         in="SourceAlpha"
         type="matrix"
         values="0 0 0 0 0 0 0 0 0 0 0 0 0 0 0 0 0 0 127 0"
         result="hardAlpha"
         id="feColorMatrix47" />
      <feOffset
         dy="-4"
         id="feOffset49" />
      <feComposite
         in2="hardAlpha"
         operator="arithmetic"
         k2="-1"
         k3="1"
         id="feComposite51" />
      <feColorMatrix
         type="matrix"
         values="0 0 0 0 0 0 0 0 0 0 0 0 0 0 0 0 0 0 0.1 0"
         id="feColorMatrix53" />
      <feBlend
         mode="normal"
         in2="shape"
         result="effect1_innerShadow_612_58"
         id="feBlend55" />
    </filter>
    <linearGradient
       id="paint0_linear_612_58"
       x1="64"
       y1="12"
       x2="64"
       y2="116"
       gradientUnits="userSpaceOnUse"
       gradientTransform="matrix(0.81250003,0,0,0.84382585,12,12.000001)">
      <stop
         stop-color="#2D2D2D"
         stop-opacity="0"
         id="stop58" />
      <stop
         offset="1"
         stop-color="#2D2D2D"
         stop-opacity="0.2"
         id="stop60" />
    </linearGradient>
  </defs>
</svg>

<?xml version="1.0" encoding="UTF-8" standalone="no"?>
<svg
   width="128"
   height="128"
   viewBox="0 0 128 128"
   fill="none"
   version="1.1"
   id="svg65"
   sodipodi:docname="help-browser.svg"
   inkscape:version="1.3.2 (091e20ef0f, 2023-11-25)"
   xmlns:inkscape="http://www.inkscape.org/namespaces/inkscape"
   xmlns:sodipodi="http://sodipodi.sourceforge.net/DTD/sodipodi-0.dtd"
   xmlns="http://www.w3.org/2000/svg"
   xmlns:svg="http://www.w3.org/2000/svg">
  <sodipodi:namedview
     id="namedview1"
     pagecolor="#ffffff"
     bordercolor="#000000"
     borderopacity="0.25"
     inkscape:showpageshadow="2"
     inkscape:pageopacity="0.0"
     inkscape:pagecheckerboard="0"
     inkscape:deskcolor="#d1d1d1"
     inkscape:zoom="6.09375"
     inkscape:cx="63.917949"
     inkscape:cy="64"
     inkscape:window-width="2560"
     inkscape:window-height="984"
     inkscape:window-x="0"
     inkscape:window-y="0"
     inkscape:window-maximized="1"
     inkscape:current-layer="g6" />
  <g
     filter="url(#filter0_ii_612_58)"
     id="g6"
     transform="matrix(1.2307692,0,0,1.1850785,-14.769231,-14.220943)"
     style="stroke-width:0.828014">
    <rect
       x="12"
       y="12"
       width="104"
       height="108.00972"
       rx="19.500002"
       fill="#268ef9"
       id="rect2"
       style="stroke-width:0.744462"
       ry="20.251822" />
  </g>
  <rect
     x="20"
     y="20"
     width="88"
     height="88"
     rx="12"
     fill="#F0F0F2"
     fill-opacity="0.1"
     id="rect8" />
  <rect
     x="21"
     y="21"
     width="86"
     height="86"
     rx="11"
     stroke="white"
     stroke-opacity="0.5"
     stroke-width="2"
     stroke-miterlimit="3.8637"
     stroke-linecap="round"
     stroke-linejoin="round"
     id="rect10" />
  <g
     filter="url(#filter1_i_612_58)"
     id="g14">
    <path
       d="M58.9091 73.9091V73.6364C58.9394 70.7424 59.2424 68.4394 59.8182 66.7273C60.3939 65.0152 61.2121 63.6288 62.2727 62.5682C63.3333 61.5076 64.6061 60.5303 66.0909 59.6364C66.9848 59.0909 67.7879 58.447 68.5 57.7045C69.2121 56.947 69.7727 56.0758 70.1818 55.0909C70.6061 54.1061 70.8182 53.0152 70.8182 51.8182C70.8182 50.3333 70.4697 49.0455 69.7727 47.9545C69.0758 46.8636 68.1439 46.0227 66.9773 45.4318C65.8106 44.8409 64.5152 44.5455 63.0909 44.5455C61.8485 44.5455 60.6515 44.803 59.5 45.3182C58.3485 45.8333 57.3864 46.6439 56.6136 47.75C55.8409 48.8561 55.3939 50.303 55.2727 52.0909H49.5455C49.6667 49.5152 50.3333 47.3106 51.5455 45.4773C52.7727 43.6439 54.3864 42.2424 56.3864 41.2727C58.4015 40.303 60.6364 39.8182 63.0909 39.8182C65.7576 39.8182 68.0758 40.3485 70.0455 41.4091C72.0303 42.4697 73.5606 43.9242 74.6364 45.7727C75.7273 47.6212 76.2727 49.7273 76.2727 52.0909C76.2727 53.7576 76.0152 55.2652 75.5 56.6136C75 57.9621 74.2727 59.1667 73.3182 60.2273C72.3788 61.2879 71.2424 62.2273 69.9091 63.0455C68.5758 63.8788 67.5076 64.7576 66.7045 65.6818C65.9015 66.5909 65.3182 67.6742 64.9545 68.9318C64.5909 70.1894 64.3939 71.7576 64.3636 73.6364V73.9091H58.9091ZM61.8182 87.3636C60.697 87.3636 59.7348 86.9621 58.9318 86.1591C58.1288 85.3561 57.7273 84.3939 57.7273 83.2727C57.7273 82.1515 58.1288 81.1894 58.9318 80.3864C59.7348 79.5833 60.697 79.1818 61.8182 79.1818C62.9394 79.1818 63.9015 79.5833 64.7045 80.3864C65.5076 81.1894 65.9091 82.1515 65.9091 83.2727C65.9091 84.0152 65.7197 84.697 65.3409 85.3182C64.9773 85.9394 64.4848 86.4394 63.8636 86.8182C63.2576 87.1818 62.5758 87.3636 61.8182 87.3636Z"
       fill="white"
       id="path12" />
  </g>
  <defs
     id="defs63">
    <filter
       id="filter0_ii_612_58"
       x="12"
       y="12"
       width="104"
       height="108"
       filterUnits="userSpaceOnUse"
       color-interpolation-filters="sRGB">
      <feFlood
         flood-opacity="0"
         result="BackgroundImageFix"
         id="feFlood16" />
      <feBlend
         mode="normal"
         in="SourceGraphic"
         in2="BackgroundImageFix"
         result="shape"
         id="feBlend18" />
      <feColorMatrix
         in="SourceAlpha"
         type="matrix"
         values="0 0 0 0 0 0 0 0 0 0 0 0 0 0 0 0 0 0 127 0"
         result="hardAlpha"
         id="feColorMatrix20" />
      <feOffset
         dy="-4"
         id="feOffset22" />
      <feComposite
         in2="hardAlpha"
         operator="arithmetic"
         k2="-1"
         k3="1"
         id="feComposite24" />
      <feColorMatrix
         type="matrix"
         values="0 0 0 0 0 0 0 0 0 0 0 0 0 0 0 0 0 0 0.1 0"
         id="feColorMatrix26" />
      <feBlend
         mode="normal"
         in2="shape"
         result="effect1_innerShadow_612_58"
         id="feBlend28" />
      <feColorMatrix
         in="SourceAlpha"
         type="matrix"
         values="0 0 0 0 0 0 0 0 0 0 0 0 0 0 0 0 0 0 127 0"
         result="hardAlpha"
         id="feColorMatrix30" />
      <feOffset
         dy="4"
         id="feOffset32" />
      <feGaussianBlur
         stdDeviation="4"
         id="feGaussianBlur34" />
      <feComposite
         in2="hardAlpha"
         operator="arithmetic"
         k2="-1"
         k3="1"
         id="feComposite36" />
      <feColorMatrix
         type="matrix"
         values="0 0 0 0 0.941176 0 0 0 0 0.941176 0 0 0 0 0.94902 0 0 0 0.2 0"
         id="feColorMatrix38" />
      <feBlend
         mode="normal"
         in2="effect1_innerShadow_612_58"
         result="effect2_innerShadow_612_58"
         id="feBlend40" />
    </filter>
    <filter
       id="filter1_i_612_58"
       x="49.5454"
       y="39.8182"
       width="26.7273"
       height="47.5455"
       filterUnits="userSpaceOnUse"
       color-interpolation-filters="sRGB">
      <feFlood
         flood-opacity="0"
         result="BackgroundImageFix"
         id="feFlood43" />
      <feBlend
         mode="normal"
         in="SourceGraphic"
         in2="BackgroundImageFix"
         result="shape"
         id="feBlend45" />
      <feColorMatrix
         in="SourceAlpha"
         type="matrix"
         values="0 0 0 0 0 0 0 0 0 0 0 0 0 0 0 0 0 0 127 0"
         result="hardAlpha"
         id="feColorMatrix47" />
      <feOffset
         dy="-4"
         id="feOffset49" />
      <feComposite
         in2="hardAlpha"
         operator="arithmetic"
         k2="-1"
         k3="1"
         id="feComposite51" />
      <feColorMatrix
         type="matrix"
         values="0 0 0 0 0 0 0 0 0 0 0 0 0 0 0 0 0 0 0.1 0"
         id="feColorMatrix53" />
      <feBlend
         mode="normal"
         in2="shape"
         result="effect1_innerShadow_612_58"
         id="feBlend55" />
    </filter>
    <linearGradient
       id="paint0_linear_612_58"
       x1="64"
       y1="12"
       x2="64"
       y2="116"
       gradientUnits="userSpaceOnUse"
       gradientTransform="matrix(0.81250003,0,0,0.84382585,12,12.000001)">
      <stop
         stop-color="#2D2D2D"
         stop-opacity="0"
         id="stop58" />
      <stop
         offset="1"
         stop-color="#2D2D2D"
         stop-opacity="0.2"
         id="stop60" />
    </linearGradient>
  </defs>
</svg>
